static/assets/img/icons/theme/electric/iron.svg

<svg height="24" viewBox="0 0 24 24" width="24" xmlns="http://www.w3.org/2000/svg"><g fill="none" fill-rule="evenodd"><path d="m0 0h24v24h-24z" opacity="0"/><g fill="#000"><path d="m20.1428571 18-1.1428571 2h-17c0-.6790427.04834392-1.346794.14177772-2zm-3.1428571-11h6v2h-6z" opacity=".3"/><path d="m21.2857143 16h-18.70595694c1.72109838-5.7829779 7.07820137-11 13.42024264-11h1.5l5.5 8zm-10.2957648-7.14142136c-.5680288.08114697-.9899495.56762565-.9899495 1.14142136 0 .5522847.4477153 1 1 1h4.5c.8284271 0 1.5-.6715729 1.5-1.5 0-.06155916-.0043694-.12304068-.0130751-.18398114-.10161-.71126984-.7605793-1.2054968-1.4718491-1.10388683zm-3.9899495 5.14142136c.55228475 0 1-.4477153 1-1s-.44771525-1-1-1-1 .4477153-1 1 .44771525 1 1 1z"/></g></g></svg>

<svg width="24px" height="24px" viewBox="0 0 24 24" version="1.1" xmlns="http://www.w3.org/2000/svg" xmlns:xlink="http://www.w3.org/1999/xlink">
    <title>Icon For Iron</title>
    <g stroke="none" stroke-width="1" fill="none" fill-rule="evenodd">
        <rect opacity="0" x="0" y="0" width="24" height="24"></rect>
        <path d="M20.1428571,18 L19,20 L2,20 C2,19.3209573 2.04834392,18.653206 2.14177772,18 L20.1428571,18 Z M17,7 L23,7 L23,9 L17,9 L17,7 Z" fill="#000000" opacity="0.3"></path>
        <path d="M21.2857143,16 L2.57975736,16 C4.30085574,10.2170221 9.65795873,5 16,5 L17.5,5 L23,13 L21.2857143,16 Z M10.9899495,8.85857864 C10.4219207,8.93972561 10,9.42620429 10,10 C10,10.5522847 10.4477153,11 11,11 L15.5,11 C16.3284271,11 17,10.3284271 17,9.5 C17,9.43844084 16.9956306,9.37695932 16.9869249,9.31601886 C16.8853149,8.60474902 16.2263456,8.11052206 15.5150758,8.21213203 L10.9899495,8.85857864 Z M7,14 C7.55228475,14 8,13.5522847 8,13 C8,12.4477153 7.55228475,12 7,12 C6.44771525,12 6,12.4477153 6,13 C6,13.5522847 6.44771525,14 7,14 Z" fill="#000000"></path>
    </g>
</svg>
